icons/desktop/16/svg/warning-16.svg

<svg width="16" height="16" viewBox="0 0 16 16" fill="none" xmlns="http://www.w3.org/2000/svg">
<path d="M7.99967 10.25C8.48291 10.25 8.87467 10.6418 8.87467 11.125C8.87467 11.6082 8.48291 12 7.99967 12C7.51658 11.9998 7.12467 11.6081 7.12467 11.125C7.12467 10.6419 7.51658 10.2502 7.99967 10.25Z" fill="black"/>
<path d="M7.99967 5C8.41367 5 8.74967 5.336 8.74967 5.75V8.25C8.74967 8.664 8.41367 9 7.99967 9C7.58583 8.9998 7.24967 8.66388 7.24967 8.25V5.75C7.24967 5.33612 7.58583 5.0002 7.99967 5Z" fill="black"/>
<path fill-rule="evenodd" clip-rule="evenodd" d="M7.97427 1C8.99919 1.00008 10.0244 1.51407 10.5963 2.54199L14.9831 10.4297C16.0571 12.3617 14.7438 14.7708 12.5368 14.8838C10.957 14.9648 9.44712 15 8.01627 15C6.45227 15 4.94562 14.9578 3.50162 14.8838C1.28394 14.7695 -0.0544257 12.3872 1.01431 10.4414L5.34439 2.55566C5.91444 1.51894 6.94441 1 7.97427 1ZM7.97427 2.5C7.70727 2.5 7.04484 2.57632 6.65884 3.27832L2.32974 11.1631C2.07585 11.625 2.07671 12.1543 2.33267 12.6133C2.59063 13.0772 3.04591 13.3587 3.57877 13.3857C5.04977 13.4617 6.54027 13.5 8.01627 13.5C9.49206 13.5 10.9868 13.4617 12.4596 13.3857C13.1936 13.3477 13.5525 12.841 13.6725 12.625C13.7945 12.4039 14.0391 11.8188 13.6725 11.1592L9.28482 3.27148C8.89794 2.5757 8.23944 2.50005 7.97427 2.5Z" fill="black"/>
</svg>

<!-- This Source Code Form is subject to the terms of the Mozilla Public
   - License, v. 2.0. If a copy of the MPL was not distributed with this
   - file, You can obtain one at http://mozilla.org/MPL/2.0/. -->
<svg xmlns="http://www.w3.org/2000/svg" width="16" height="16" fill="context-fill" fill-opacity="context-fill-opacity" viewBox="0 0 16 16">
    <path d="M8 10.25A.875.875 0 1 1 8 12a.875.875 0 0 1 0-1.75M8 5a.75.75 0 0 1 .75.75v2.5a.75.75 0 0 1-1.5 0v-2.5A.75.75 0 0 1 8 5" />
    <path fill-rule="evenodd" d="M7.974 1c1.025 0 2.05.514 2.622 1.542l4.387 7.888c1.074 1.932-.24 4.34-2.446 4.454a88 88 0 0 1-9.035 0c-2.218-.114-3.556-2.497-2.488-4.443l4.33-7.885A2.97 2.97 0 0 1 7.974 1m0 1.5c-.267 0-.93.076-1.315.778l-4.33 7.885a1.47 1.47 0 0 0 .004 1.45c.258.464.713.746 1.246.773a86 86 0 0 0 8.88 0 1.46 1.46 0 0 0 1.213-.761 1.49 1.49 0 0 0 0-1.466L9.285 3.271a1.47 1.47 0 0 0-1.31-.771" clip-rule="evenodd" />
</svg>
